X:1866
T:Polonäs, sexdregasamlingen del 1 nr 9
S:Johannes Bryngelssons Notbok, Sexdrega 1774
Z:Per Oldberg 2010-07-19
M:3/4
L:1/16
O:Sexdrega, Västergötland
R:Polonäs
K:D
dcde d2A2F2D2|dcde d2A2F2D2|d2cd e2de f2ef|g2f2 e8:|
a^gab a2e2c2A2|gfga g2e2c2A2|f2ef g2fe f2ed|e2dc d4D4:|
(:musicend:)
(:music:)
